X:65
T:B065-  Chi Passa
Q:1/4=120
L:1/4
M:3/4
K:Dm
e|e3/2f/2e|e3/2f/2e|e3/2f/2e|e2d/2e/2|\
f2e|d^c2|d3|d2:|c/2d/2|e3/2f/2e|g2f|e3|cde|\
ff2|fd=B|=B3/2c/2B|^c3/2=B/2c|\
d2e|d^c2|d3|d2|]

